X:1
T: The Lovely Lad
C:
R:Jig
Q:180
K:D
M:6/8
L:1/16
(3ABc|d4A2 A4G2|F4D2 D4F2|E2F2E2 =c4G2|E4=C2 C4A2|d4B2 =c4A2|B4G2 A4G2|F4D2 E2F2G2|F4D2 D4(3ABc|
d4A2 A4G2|F4D2 D4F2|E2F2E2 =c4G2|E4=C2 C4A2|d4B2 =c4A2|B4G2 A4G2|F4D2 E2F2G2|F4D2 D4d2|
f4d2 A2d2e2|f4d2 d2e2f2|e4=c2 G2c2d2|e4=c2 c2d2e2|f4d2 g4e2|a4f2 g4e2|f4d2 e2f2g2|f4d2 d4d2|
f4d2 A2d2e2|f4d2 d2e2f2|e4=c2 G2c2d2|e4=c2 c2d2e2|f4d2 g4e2|a4f2 g4e2|f4d2 e2f2g2|f4d2 d4||
